svgs/sharp-light/people-pants-simple.svg

<svg xmlns="http://www.w3.org/2000/svg" viewBox="0 0 512 512"><!--! Font Awesome Pro 6.4.2 by @fontawesome - https://fontawesome.com License - https://fontawesome.com/license (Commercial License) Copyright 2023 Fonticons, Inc. --><path d="M160 64A32 32 0 1 0 96 64a32 32 0 1 0 64 0zM64 64a64 64 0 1 1 128 0A64 64 0 1 1 64 64zM57.4 320H64 96h64 32 6.6l-5.3-128H62.7L57.4 320zM200 352h-8V496v16H160V496 352H96V496v16H64V496 352H56 24l1.3-32L32 160H224l6.7 160 1.3 32H200zM416 64a32 32 0 1 0 -64 0 32 32 0 1 0 64 0zm-96 0a64 64 0 1 1 128 0A64 64 0 1 1 320 64zm-6.6 256H320h32 64 32 6.6l-5.3-128H318.7l-5.3 128zM456 352h-8V496v16H416V496 352H352V496v16H320V496 352h-8H280l1.3-32L288 160H480l6.7 160 1.3 32H456z"/></svg>

<svg xmlns="http://www.w3.org/2000/svg" viewBox="0 0 512 512"><!--! Font Awesome Pro 6.6.0 by @fontawesome - https://fontawesome.com License - https://fontawesome.com/license (Commercial License) Copyright 2024 Fonticons, Inc. --><path d="M160 64A32 32 0 1 0 96 64a32 32 0 1 0 64 0zM64 64a64 64 0 1 1 128 0A64 64 0 1 1 64 64zM57.4 320l6.6 0 32 0 64 0 32 0 6.6 0-5.3-128L62.7 192 57.4 320zM200 352l-8 0 0 144 0 16-32 0 0-16 0-144-64 0 0 144 0 16-32 0 0-16 0-144-8 0-32 0 1.3-32L32 160l192 0 6.7 160 1.3 32-32 0zM416 64a32 32 0 1 0 -64 0 32 32 0 1 0 64 0zm-96 0a64 64 0 1 1 128 0A64 64 0 1 1 320 64zm-6.6 256l6.6 0 32 0 64 0 32 0 6.6 0-5.3-128-130.6 0-5.3 128zM456 352l-8 0 0 144 0 16-32 0 0-16 0-144-64 0 0 144 0 16-32 0 0-16 0-144-8 0-32 0 1.3-32L288 160l192 0 6.7 160 1.3 32-32 0z"/></svg>
